packages/foundations/assets/icons/functional/images/social/face_delighted_28.svg

<svg width="28" height="28" viewBox="0 0 28 28" fill="none" xmlns="http://www.w3.org/2000/svg">
<g clip-path="url(#clip0_187_343)">
<path fill-rule="evenodd" clip-rule="evenodd" d="M23.0186 14C23.0186 18.9726 18.9726 23.0186 14 23.0186C9.02738 23.0186 4.98138 18.9726 4.98138 14C4.98138 9.02738 9.02738 4.98138 14 4.98138C18.9726 4.98138 23.0186 9.02738 23.0186 14ZM3.5 14C3.5 19.7986 8.20138 24.5 14 24.5C19.7986 24.5 24.5 19.7986 24.5 14C24.5 8.20138 19.7986 3.5 14 3.5C8.20138 3.5 3.5 8.20138 3.5 14ZM8.806 15.9443C8.73337 15.6258 8.84538 15.2932 9.09562 15.0824C9.345 14.8715 9.69237 14.8173 9.99512 14.9424C10.0144 14.9511 11.9709 15.7509 14 15.7509C16.0291 15.7509 17.9856 14.9511 18.0049 14.9424C18.3085 14.8173 18.655 14.8715 18.9044 15.0824C19.1538 15.2932 19.2666 15.6258 19.194 15.9443C18.865 17.3906 17.3547 20.125 14 20.125C10.6453 20.125 9.135 17.3906 8.806 15.9443ZM11.3628 17.1833C11.8939 17.8089 12.7269 18.375 14 18.375C15.2731 18.375 16.1053 17.8089 16.6373 17.1833C15.869 17.3574 14.9494 17.5 14 17.5C13.0506 17.5 12.1319 17.3574 11.3628 17.1833ZM11.7434 12.0531C12.1266 12.348 12.6761 12.2754 12.9701 11.8912C13.2641 11.508 13.1915 10.9594 12.8083 10.6654C11.2761 9.4885 9.07463 9.779 7.90037 11.3111C7.60637 11.6944 7.679 12.243 8.06225 12.537C8.2215 12.6595 8.40875 12.7181 8.59425 12.7181C8.85675 12.7181 9.11662 12.6 9.289 12.3751C9.877 11.6121 10.9777 11.4669 11.7434 12.0531ZM20.1338 11.312C19.565 10.57 18.7408 10.094 17.8141 9.97237C16.8884 9.849 15.9688 10.0966 15.2268 10.6663C14.8435 10.9603 14.7709 11.5098 15.0649 11.8921C15.3597 12.2762 15.9092 12.348 16.2916 12.054C16.6626 11.7696 17.1203 11.6454 17.5858 11.7075C18.0486 11.7679 18.4607 12.0059 18.7451 12.3769C18.9175 12.6018 19.1774 12.7199 19.4399 12.7199C19.6254 12.7199 19.8135 12.6613 19.9719 12.5387C20.3551 12.2439 20.4278 11.6944 20.1338 11.312Z" fill="#1A1C1F"/>
</g>
<defs>
<clipPath id="clip0_187_343">
<rect width="28" height="28" fill="white"/>
</clipPath>
</defs>
</svg>

<svg xmlns="http://www.w3.org/2000/svg" width="28" height="28" fill="none"><g clip-path="url(#a)"><path fill="#1A1C1F" fill-rule="evenodd" d="M23.019 14c0 4.973-4.046 9.019-9.019 9.019S4.981 18.973 4.981 14 9.027 4.981 14 4.981 23.019 9.027 23.019 14M3.5 14c0 5.799 4.701 10.5 10.5 10.5S24.5 19.799 24.5 14 19.799 3.5 14 3.5 3.5 8.201 3.5 14m5.306 1.944a.876.876 0 0 1 1.19-1.002c.018.01 1.975.809 4.004.809 2.03 0 3.986-.8 4.005-.809a.875.875 0 0 1 1.189 1.002c-.329 1.447-1.84 4.181-5.194 4.181s-4.865-2.734-5.194-4.18m2.557 1.24c.53.625 1.364 1.191 2.637 1.191s2.105-.566 2.637-1.192c-.768.174-1.688.317-2.637.317s-1.868-.143-2.637-.317m.38-5.13a.874.874 0 1 0 1.065-1.389 3.5 3.5 0 0 0-4.908.646.874.874 0 1 0 1.389 1.064 1.756 1.756 0 0 1 2.454-.322m8.39-.742a3.47 3.47 0 0 0-2.319-1.34 3.47 3.47 0 0 0-2.587.694.874.874 0 1 0 1.065 1.388 1.73 1.73 0 0 1 1.294-.347c.463.06.875.299 1.16.67a.874.874 0 0 0 1.226.162.875.875 0 0 0 .162-1.227" clip-rule="evenodd"/></g><defs><clipPath id="a"><path fill="#fff" d="M0 0h28v28H0z"/></clipPath></defs></svg>
